app/component-library/components/Icons/Icon/assets/message-question.svg

<svg width="24" height="24" viewBox="0 0 24 24" fill="none" xmlns="http://www.w3.org/2000/svg">
<path d="M17.2808 2.43018H7.28076C4.28076 2.43018 2.28076 4.43018 2.28076 7.43018V13.4302C2.28076 16.4302 4.28076 18.4302 7.28076 18.4302V20.5602C7.28076 21.3602 8.17076 21.8402 8.83076 21.3902L13.2808 18.4302H17.2808C20.2808 18.4302 22.2808 16.4302 22.2808 13.4302V7.43018C22.2808 4.43018 20.2808 2.43018 17.2808 2.43018ZM12.2808 14.6002C11.8608 14.6002 11.5308 14.2602 11.5308 13.8502C11.5308 13.4402 11.8608 13.1002 12.2808 13.1002C12.7008 13.1002 13.0308 13.4402 13.0308 13.8502C13.0308 14.2602 12.7008 14.6002 12.2808 14.6002ZM13.5408 10.4502C13.1508 10.7102 13.0308 10.8802 13.0308 11.1602V11.3702C13.0308 11.7802 12.6908 12.1202 12.2808 12.1202C11.8708 12.1202 11.5308 11.7802 11.5308 11.3702V11.1602C11.5308 10.0002 12.3808 9.43018 12.7008 9.21018C13.0708 8.96018 13.1908 8.79018 13.1908 8.53018C13.1908 8.03018 12.7808 7.62018 12.2808 7.62018C11.7808 7.62018 11.3708 8.03018 11.3708 8.53018C11.3708 8.94018 11.0308 9.28018 10.6208 9.28018C10.2108 9.28018 9.87076 8.94018 9.87076 8.53018C9.87076 7.20018 10.9508 6.12018 12.2808 6.12018C13.6108 6.12018 14.6908 7.20018 14.6908 8.53018C14.6908 9.67018 13.8508 10.2402 13.5408 10.4502Z" fill="currentColor"/>
</svg>

<svg xmlns="http://www.w3.org/2000/svg" width="24" height="24" viewBox="0 0 24 24" fill="none"><path d="M17.28 2.43h-10c-3 0-5 2-5 5v6c0 3 2 5 5 5v2.13c0 .8.89 1.28 1.55.83l4.45-2.96h4c3 0 5-2 5-5v-6c0-3-2-5-5-5zm-5 12.17a.749.749 0 1 1 0-1.5.749.749 0 1 1 0 1.5zm1.26-4.15c-.39.26-.51.43-.51.71v.21c0 .41-.34.75-.75.75s-.75-.34-.75-.75v-.21c0-1.16.85-1.73 1.17-1.95.37-.25.49-.42.49-.68 0-.5-.41-.91-.91-.91s-.91.41-.91.91c0 .41-.34.75-.75.75s-.75-.34-.75-.75c0-1.33 1.08-2.41 2.41-2.41s2.41 1.08 2.41 2.41c0 1.14-.84 1.71-1.15 1.92z" fill="currentColor"/></svg>
